src/svg/color/dcn.svg

<svg xmlns="http://www.w3.org/2000/svg" width="32" height="32" viewBox="0 0 32 32"><g fill="none" fill-rule="evenodd"><circle cx="16" cy="16" r="16" fill="#136485"/><path fill="#FFF" d="M10.435872,31.0059831 C8.32101771,30.2215093 6.41709769,29.0027404 4.83244105,27.4580055 C4.90717047,27.3270569 4.9673422,27.2196039 4.9791211,27.2009758 C7.36702247,23.4277011 9.51172384,19.5230857 11.126891,15.3512176 C12.8402499,10.9255473 14.2108142,6.38400879 15.517817,1.82356923 C15.6344197,1.41697582 15.7730279,1.01662418 15.9013786,0.613371429 C16.0387595,0.771789011 16.0892581,0.918602198 16.1311649,1.06778901 C16.951154,3.9935033 17.7444033,6.92712967 18.5949896,9.84387692 C20.1444033,15.156844 22.3241732,20.1971077 25.2122389,24.9208 C25.549165,25.4719118 26.1224127,26.39266 26.9319819,27.6830443 C25.2272453,29.278847 23.1730189,30.5058632 20.8965391,31.2368564 C18.6379787,24.356861 16.9707217,19.3005345 15.8947682,16.0678769 L15.7409929,16.0652396 C14.5754913,19.3419888 12.8071176,24.3222367 10.435872,31.0059831 Z M16.0750102,0.0487566147 C16.0338938,0.0485211557 15.9927235,0.0484355223 15.9514996,0.0485003567 L16,0 L16.0750102,0.0487566147 Z"/></g></svg>

<svg xmlns="http://www.w3.org/2000/svg" width="32" height="32" viewBox="0 0 32 32"><g fill="none" fill-rule="evenodd"><circle cx="16" cy="16" r="16" fill="#136485"/><path fill="#FFF" d="M10.436 31.006a16.008 16.008 0 0 1-5.604-3.548l.147-.257c2.388-3.773 4.533-7.678 6.148-11.85 1.713-4.425 3.084-8.967 4.39-13.527.117-.407.256-.807.384-1.21.138.158.188.305.23.454.82 2.926 1.613 5.86 2.464 8.776 1.55 5.313 3.73 10.353 6.617 15.077.337.55.91 1.472 1.72 2.762a15.988 15.988 0 0 1-6.035 3.554 4320.193 4320.193 0 0 0-5.002-15.17l-.154-.002c-1.166 3.277-2.934 8.257-5.305 14.941zM16.075.049h-.124L16 0l.075.049z"/></g></svg>
